resources/svg/ready-to-plant.svg

<?xml version="1.0" encoding="UTF-8" standalone="no"?>
<svg
   xmlns:dc="http://purl.org/dc/elements/1.1/"
   xmlns:cc="http://creativecommons.org/ns#"
   xmlns:rdf="http://www.w3.org/1999/02/22-rdf-syntax-ns#"
   xmlns:svg="http://www.w3.org/2000/svg"
   xmlns="http://www.w3.org/2000/svg"
   xmlns:sodipodi="http://sodipodi.sourceforge.net/DTD/sodipodi-0.dtd"
   xmlns:inkscape="http://www.inkscape.org/namespaces/inkscape"
   viewBox="0 0 6.615 6.615"
   height="25"
   width="25"
   version="1.1"
   id="svg839"
   sodipodi:docname="ready-to-plant.svg"
   inkscape:version="1.0 (4035a4fb49, 2020-05-01)">
  <metadata
     id="metadata845">
    <rdf:RDF>
      <cc:Work
         rdf:about="">
        <dc:format>image/svg+xml</dc:format>
        <dc:type
           rdf:resource="http://purl.org/dc/dcmitype/StillImage" />
        <dc:title />
      </cc:Work>
    </rdf:RDF>
  </metadata>
  <defs
     id="defs843" />
  <sodipodi:namedview
     inkscape:document-rotation="0"
     pagecolor="#ffffff"
     bordercolor="#666666"
     borderopacity="1"
     objecttolerance="10"
     gridtolerance="10"
     guidetolerance="10"
     inkscape:pageopacity="0"
     inkscape:pageshadow="2"
     inkscape:window-width="1550"
     inkscape:window-height="955"
     id="namedview841"
     showgrid="true"
     inkscape:zoom="14.589935"
     inkscape:cx="14.611127"
     inkscape:cy="11.079536"
     inkscape:window-x="41"
     inkscape:window-y="53"
     inkscape:window-maximized="0"
     inkscape:current-layer="svg839">
    <inkscape:grid
       type="xygrid"
       id="grid1675" />
  </sodipodi:namedview>
  <path
     id="path1019"
     d="M 3.0429,2.646 H 3.5721 V 6.3504 H 3.0429 Z"
     fill="#4c6f40"
     style="stroke-width:0.219519;fill:#660000;fill-opacity:1"
     sodipodi:nodetypes="ccccc" />
  <path
     id="path1021"
     d="M 2.1168,2.5137 H 4.4982 V 2.646 H 2.1168 Z"
     fill="#4c6f40"
     style="stroke-width:0.227224;fill:#660000;fill-opacity:1"
     sodipodi:nodetypes="ccccc" />
  <circle
     id="path1677"
     style="fill:#660000;stroke:#000000;stroke-width:0.2646;fill-opacity:1"
     cx="2.3036742"
     cy="2.5141623"
     r="0" />
  <path
     sodipodi:nodetypes="cccc"
     style="stroke-width:0.227224;fill:#660000;fill-opacity:1"
     fill="#4c6f40"
     d="m 2.1168,2.5137 h 0.2646 c 0,0 -0.047675,-1.52273795 -0.1323,-1.8522 C 2.164475,0.99096205 2.1168009,2.5137 2.1168,2.5137 Z"
     id="path1023-6" />
  <path
     id="path1023-6-3"
     d="m 2.84445,2.5137 h 0.2646 c 0,0 -0.047675,-1.52273791 -0.1323,-1.8522 -0.084625,0.32946209 -0.1322991,1.8522 -0.1323,1.8522 z"
     fill="#4c6f40"
     style="stroke-width:0.227224;fill:#660000;fill-opacity:1"
     sodipodi:nodetypes="cccc" />
  <path
     sodipodi:nodetypes="cccc"
     style="stroke-width:0.227224;fill:#660000;fill-opacity:1"
     fill="#4c6f40"
     d="m 3.50595,2.5137 h 0.2646 c 0,0 -0.047675,-1.52273793 -0.1323,-1.8522 -0.084625,0.32946207 -0.1322991,1.8522 -0.1323,1.8522 z"
     id="path1023-6-3-2" />
  <path
     id="path1023-6-3-2-9"
     d="m 4.2336,2.5137 h 0.2646 c 0,0 -0.047675,-1.5227379 -0.1323,-1.85219997 C 4.281275,0.9909621 4.2336009,2.5137 4.2336,2.5137 Z"
     fill="#4c6f40"
     style="stroke-width:0.227224;fill:#660000;fill-opacity:1"
     sodipodi:nodetypes="cccc" />
</svg>

<svg xmlns="http://www.w3.org/2000/svg" viewBox="0 0 6.615 6.615" height="25" width="25"><path d="M3.043 2.646h.53V6.35h-.53zM2.117 2.514h2.381v.132H2.117z" fill="#600"/><path fill="#600" d="M2.117 2.514h.264S2.334.99 2.25.662c-.085.329-.132 1.852-.132 1.852zM2.844 2.514h.265S3.061.99 2.977.662c-.085.329-.133 1.852-.133 1.852zM3.506 2.514h.265S3.723.99 3.638.662c-.084.329-.132 1.852-.132 1.852zM4.234 2.514h.264S4.451.99 4.366.662c-.085.329-.132 1.852-.132 1.852z"/></svg>
